img/facebook.svg

<svg width="11" height="23" viewBox="0 0 11 23" fill="none" xmlns="http://www.w3.org/2000/svg">
<path d="M3.62378 1.13123C4.59355 0.376244 5.82388 -0.0252255 7.08674 0.00122876H11V3.86123H8.46979C8.19886 3.85027 7.93242 3.92836 7.7169 4.08187C7.50138 4.23537 7.35045 4.45457 7.29045 4.70123V7.28123H11C10.9142 8.52123 10.7212 9.76123 10.5604 11.0012H7.34405V22.0012H2.40156V11.0012H0V7.30123H2.38012V3.71123C2.43182 2.7359 2.87591 1.81461 3.62378 1.13123Z" fill="white"/>
</svg>

<svg width="11" height="23" fill="none" xmlns="http://www.w3.org/2000/svg"><path d="M3.624 1.131A5.46 5.46 0 017.087.001H11v3.86H8.47a1.216 1.216 0 00-.753.22 1.076 1.076 0 00-.427.62v2.58H11c-.086 1.24-.279 2.48-.44 3.72H7.344v11H2.402v-11H0v-3.7h2.38v-3.59a3.768 3.768 0 011.244-2.58z" fill="#fff"/></svg>
